X:9
T:The Ocean Refuses No River
C:Anonymous, supposedly Sufi origin
M:4/4
Q:120
L:1/4
K:Dminor
P:1.
D |:"Dm"A2 F D | "C"G2 E C | "Dm"C D D C | C D D x D |
w:The o-cean re-fus-es no ri_-ver, no ri_-ver. The
W:
"Dsus"G A F D | "C"F G E C | "Dm"C D D C | C D D2 x ||
w:o-pen heart re-fus_-es no part of you, no part of me.
W:
P:2.
"Dm"d>d d A | "C"c c c2 | "Dm"A3 x G/F/ | D4 x x |
w:I am one with all that is, one with_ all.
w:Ishq Al-lah ma'-bud lil-lah, il Al_-lah.
W:
"Dsus"D>F F D | "C"C C C2 | "Dm"A3 x G/F/ | D4 x ||
w:All that is, is one with me, one with_ me.
w:Ishq Al-lah ma'-bud lil-lah, il Al_-lah.
W:
P:3.
"Dm"D F G2 | "C"G G/G/ G/A/ G/F/ | "Dm"D F G G |
w:Al-le-lu-ia, al-le lu_-ia._ La il-a-ha, il Al-lah hu___
W:
A A/A/ G/A/G/F/ |"Dsus"D F G2 | "C"G G/G/ G/A/ G/F/ |
w: il Al-lah hu___ Al-le-lu-ia, al-le lu_-ia._
W:
 "Dm"D F G G |1 A A/A/ G/A/G/ F/ :|2 A A/A/ !fermata!D x x |]
w:La il-a-ha, il Al-lah hu__ The il Al-lah hu.
